X: 1332
T: Mah Yüzüne Âşıkânım
C: Dede Efendi
O: Turkey
F: http://compmusic.upf.edu/node/140
N: hicaz--sarki--evfer--mah_yuzune--dede_efendi
N: makam= hicaz
N: form= sarki
N: usul= evfer = 9/8
M: 9/8
L: 1/16
K: C _7/8B ^f ^c 
Q: 1/4=156
%%MIDI tuningsystem comma53
A4 A3=f edcB cde2 z2 | d2 efg2 =feed dcd4z2  | 
w:  ARANAĞME  |   | 
cdef g2=fe f2ed cdcB AG | A2 BAe2 dccB BAA4Bc  | 
w:   |   | 
A4 A3=f edcB cde2 z2 | d2 efg2 =feed dcd4z2  | 
w:  ARANAĞME  |   | 
cdef g2=fe f2ed cdcB AG | A2 BAe2 dccB BAA4Bc  | 
w:   |   | 
A4 A3=f edcB cde2 z2 | e=f edg3ffe (3dcdg4fe  | 
w:  *  Mâh  yü zü *  *  *  ne   |  â *  *  *  şı *  ka *  *  *  *  nım    | 
dcBA zc2d cBAG c2d4 | c2 BAe2 dccB BAA4Bc  | 
w:  *  *  *  *  Ta ze  bit *  *  *  miş   |  gül  *  *  *  fi *  da *  *  *  nım    | 
A4 A3=f edcB cde2 z2 | e=f edg3ffe (3dcdg4fe  | 
w:  *  Mâh  yü zü *  *  *  ne   |  â *  *  *  şı *  ka *  *  *  *  nım    | 
dcBA zc2d cBAG c2d4 | c2 BAe2 dccB BAA4Bc  | 
w:  *  *  *  *  Ta ze  bit *  *  *  miş   |  gül  *  *  *  fi *  da *  *  *  nım    | 
a4 e4 =c'=bab ^g2a4 | ag {b}aggf {a}gffe efg2 agfe  | 
w:  E fen dim  *  *  *  naz  |  lı  *  *  *  *  câ *  *  *  *  nâ *  *  *  nım    | 
d4 z2de fgeg f6 | d4g3ffe (3dcdg4=fe  | \
w:  *  Se ni  ga *  *  *  yet   |  sev di  *  câ *  *  *  *  nım    | 
dcBA z2cd cBAG c2d4 | 
w:  *  *  *  *  Se ve rim  *  *  *  yok  | 
c2 BAe2 dccB BAA6  | a4 e4 =c'=bab ^g2a4 | \
w:  tur  *  *  *  ya *  la *  *  *  nım    |  E fen dim  *  *  *  naz  | 
ag {b}aggf {a}gffe efg2 agfe  | 
w:  lı  *  *  *  *  câ *  *  *  *  nâ *  *  *  nım    | 
d4 z2de fgeg f6 | d4g3ffe (3dcdg4=fe  | \
w:  *  Se ni  ga *  *  *  yet   |  sev di  *  câ *  *  *  *  nım    | 
dcBA z2cd cBAG c2d4 | 
w:  *  *  *  *  Se ve rim  *  *  *  yok  | 
c2 BAe2 dccB BAA6  | A4 A3=f edcB cde2 z2 | 
w:  tur  *  *  *  ya *  la *  *  *  nım    |  ARANAĞME  | 
d2 efg2 =feed dcd4z2  | cdef g2=fe f2ed cdcB AG | 
w:   |   | 
A2 BAe2 dccB BAA4Bc  | A4 A3=f edcB cde2 z2 | 
w:   |  ARANAĞME  | 
d2 efg2 =feed dcd4z2  | cdef g2=fe f2ed cdcB AG | 
w:   |   | 
A2 BAe2 dccB BAA4Bc  | A4 A3=f edcB cde2 z2 | 
w:   |  *  Mâh  yü zü *  *  *  ne   | 
e=f edg3ffe (3dcdg4fe  | dcBA zc2d cBAG c2d4 | 
w:  â *  *  *  şı *  ka *  *  *  *  nım    |  *  *  *  *  Ta ze  bit *  *  *  miş   | 
c2 BAe2 dccB BAA4Bc  | A4 A3=f edcB cde2 z2 | 
w:  gül  *  *  *  fi *  da *  *  *  nım    |  *  Mâh  yü zü *  *  *  ne   | 
e=f edg3ffe (3dcdg4fe  | dcBA zc2d cBAG c2d4 | 
w:  â *  *  *  şı *  ka *  *  *  *  nım    |  *  *  *  *  Ta ze  bit *  *  *  miş   | 
c2 BAe2 dccB BAA4Bc  | a4 e4 =c'=bab ^g2a4 | 
w:  gül  *  *  *  fi *  da *  *  *  nım    |  E fen dim  *  *  *  naz  | 
ag {b}aggf {a}gffe efg2 agfe  | d4 z2de fgeg f6 | 
w:  lı  *  *  *  *  câ *  *  *  *  nâ *  *  *  nım    |  *  Se ni  ga *  *  *  yet   | 
d4g3ffe (3dcdg4=fe  | dcBA z2cd cBAG c2d4 | 
w:  sev di  *  câ *  *  *  *  nım    |  *  *  *  *  Se ve rim  *  *  *  yok  | 
c2 BAe2 dccB BAA6  | a4 e4 =c'=bab ^g2a4 | \
w:  tur  *  *  *  ya *  la *  *  *  nım    |  E fen dim  *  *  *  naz  | 
ag {b}aggf {a}gffe efg2 agfe  | 
w:  lı  *  *  *  *  câ *  *  *  *  nâ *  *  *  nım    | 
d4 z2de fgeg f6 | d4g3ffe (3dcdg4=fe  | \
w:  *  Se ni  ga *  *  *  yet   |  sev di  *  câ *  *  *  *  nım    | 
dcBA z2cd cBAG c2d4 | 
w:  *  *  *  *  Se ve rim  *  *  *  yok  | 
c2 BAe2 dccB BAA6  | |


